src/assets/logo.svg

<svg xmlns="http://www.w3.org/2000/svg" viewBox="0 0 302 347">
  <path fill="#7ee787" fill-rule="nonzero" d="M232.565 0c6.437 0 11.652 5.248 11.652 11.727v23.455c0 6.48-5.215 11.727-11.652 11.727H220.7v50.973c48.77 26.244 82.543 78.21 81.265 136.287-.828 37.54-15.354 71.695-38.76 97.686-8.776 9.74-21.43 15.145-34.54 15.145H73.278c-12.908 0-25.445-5.18-34.12-14.746C14.83 305.443 0 269.85 0 230.776c0-58.199 33.111-108.342 81.308-133.57V46.909H69.435c-6.338 0-11.49-5.088-11.648-11.429l-.004-.298V11.727C57.783 5.248 62.998 0 69.435 0h163.13Zm-58.327 46.909h-46.469v78.438c-14.671 7.685-72.835 28.14-80.472 93.386 47.804-23.914 92.662-22.54 131.98-2.87 27.435 13.73 50.435 14.916 67.217 14.944h1.188c2.747-.003 5.32-.03 7.712-.03-.196-66.713-54.687-90.866-81.155-105.11l-.001-78.758Z"/>
</svg>

<?xml version="1.0" encoding="UTF-8"?>
<svg width="302px" height="347px" viewBox="0 0 302 347" version="1.1" xmlns="http://www.w3.org/2000/svg" xmlns:xlink="http://www.w3.org/1999/xlink">
    <title>logo</title>
    <defs>
        <linearGradient x1="19.652%" y1="10.207%" x2="82.856%" y2="91.927%" id="linearGradient-1">
            <stop stop-color="#00EAF8" offset="0%"></stop>
            <stop stop-color="#6D42EF" offset="100%"></stop>
        </linearGradient>
    </defs>
    <g id="Page-1" stroke="none" stroke-width="1" fill="none" fill-rule="evenodd">
        <g id="logo" fill="url(#linearGradient-1)" fill-rule="nonzero">
            <path d="M232.565,0 C239.002,0 244.217,5.248 244.217,11.727 L244.217,35.182 C244.217,41.662 239.002,46.909 232.565,46.909 L220.7,46.909 L220.7,97.882 C269.47,124.126 303.243,176.092 301.965,234.169 C301.137,271.709 286.611,305.864 263.205,331.855 C254.429,341.595 241.775,347 228.665,347 L73.278,347 C60.37,347 47.833,341.82 39.158,332.254 C14.83,305.443 0,269.85 0,230.776 C0,172.577 33.111,122.434 81.308,97.206 L81.308,46.909 L69.435,46.909 C63.097,46.909 57.945,41.821 57.787,35.48 L57.783,35.182 L57.783,11.727 C57.783,5.248 62.998,0 69.435,0 L232.565,0 Z M174.238,46.909 L127.769,46.909 L127.769,125.347 C113.098,133.032 54.934,153.487 47.297,218.733 C95.101,194.819 139.959,196.193 179.277,215.863 C206.712,229.593 229.712,230.779 246.494,230.807 L247.682,230.807 C250.429,230.804 253.002,230.777 255.394,230.777 C255.198,164.064 200.707,139.911 174.239,125.667 L174.238,46.909 L174.238,46.909 Z" id="Shape"></path>
        </g>
    </g>
</svg>
